X: 23605
T: Lilly, The
R: reel
M: 4/4
K: Dmajor
d>cd>A B2 A>G|F<DF>A E3 A|d>cd>A (3BcB A>G|F<GF>E D3:|
F>AD>A (3FGA D>A|G>BE>B (3GAB E>B|(3FGA D2 F>AD>A|F<GF>E D3:|
f>df>A e>ce>A|f>df>A (3edc e>A|(3fed f2 (3edc e2|a<gf>e d3 e|
f>df>a e>ce>a|f>df>a e>ce>a|f>df>a (3edc e>A|a>gf<e d3||

